X:1
T:Title
%%score { 1 | 2 }
L:1/8
Q:1/4=100
M:4/4
K:F
V:1 treble nm="Grand Piano"
V:2 bass 
V:1
 [FA]2 [EA]>[EG] F2 A2 | c>c d>c c2 A2 | A2 [EA]>[EG] F2 A2 | c>d c>A [EG]4 | %4
w: Henry~Tucker * * * *||||
 [FA]2 [EA]>[EG] F2 A2 | c>c d>c c2 A2 | B2 cd cA [DF]2 |[M:3/4] [CFA]2 [B,EA]>[B,EG] [A,F]2 | %8
w: ||||
[M:1/4] [FA][GB] |[M:4/4] [Ac]>[_A=B] [=Ac]>[_Bd] [Ac]2 [FA][GB] |[M:3/4] [Ac]>A f>c d2 | %11
w: |||
[M:1/4] c2 |[M:4/4] A>[GB] [Ac]>[Bd] [Ac]2 [FA]2 |[M:3/4] [Ff]>[Bd] [Ac][FA] [EG]2 | %14
w: |||
[M:1/4] [FA][GB] |[M:4/4] [Ac]>[_A=B] [=Ac]>[_Bd] [Ac]2 [FA][GB] |[M:3/4] [Ac]>A f>c d2 | %17
w: |||
[M:1/4] c[EB] |[M:4/4] A>B c>d c>A F[DGB] | [CFA]2 [CEA]>[B,EG] [A,F]4 |] %20
w: |||
V:2
 [F,C]2 [C,C]>[C,B,] [F,A,]2 [F,CF]2 | [F,A,F]>[F,A,F] [F,B,F]>[F,A,F] [F,A,F]2 [F,CF]2 | %2
 [F,CF]2 [C,C]>[C,B,] [F,A,]2 [F,CF]2 | [F,A,F]>[F,B,F] [F,A,F]>[F,CF] [C,C]4 | %4
 [F,C]2 [C,C]>[C,B,] [F,A,]2 [F,CF]2 | [F,A,F]>[F,A,F] [F,B,F]>[F,A,F] [F,A,F]2 [F,CF]2 | %6
 [F,DF]2 [F,A,F][F,B,F] [F,A,F][F,CF]D,B,, |[M:3/4] C,2 C,>C, F,2 |[M:1/4] [F,C]2 | %9
[M:4/4] [F,F]>[F,F] [F,F]>[F,F] [F,F]2 [F,C][F,C] |[M:3/4] [F,F]>[F,CF] [F,DF]>[F,A,F] [F,B,F]2 | %11
[M:1/4] [F,A,F]2 |[M:4/4] [F,CF]>[F,C] [F,F]>[F,F] [F,F]2 [F,C]2 | %13
[M:3/4] [F,D]>[F,F] [F,F][F,C] [C,C]2 |[M:1/4] [F,C]2 | %15
[M:4/4] [F,F]>[F,F] [F,F]>[F,F] [F,F]2 [F,C][F,C] |[M:3/4] [F,F]>[F,CF] [F,DF]>[F,A,F] [F,B,F]2 | %17
[M:1/4] [F,A,F][C,G,] |[M:4/4] [F,F]>[F,G,F] [F,A,F]>[F,B,F] [F,A,F]>[F,CF] [D,D]B,, | %19
 C,2 C,>C, F,4 |] %20

